X:1
T: The Czar of Russia's Favourite Hornpipe
C:
R:Reel
Q: 232
K:F
M:4/4
L:1/8
f2 AB cA cA|f2 AB cA cA|dc BA G2 ga|bg af fe dc|
f2 AB cA cA|f2 AB cA cA|dc BA G2 ga|bg fe f2 f2|
a2 fa fa fa|g2 eg eg eg|a2 fa fa fa|gf ed c2 de|
fd fd ec ec|fd fd ec ec|fa gf ed c=B|cG EG Ce fg|
a2 fa fa fa|g2 eg eg eg|a2 fa fa fa|gf ed c2 de|
fd fd ec ec|fd fd ec ec|fa gf ed c=B|cG EG Cg fe|
f2 AB cA cA|f2 AB cA cA|dc BA G2 ga|bg af fe dc|
f2 AB cA cA|f2 AB cA cA|dc BA G2 ga|bg fe f2 f2||
